X:1
T:Thou Lord on whom I still Depend
T:Thou Lord on whom I still Depend
T:Alan Struck
C:Alan Struck
%%score [ 1 2 3 4 ]
L:1/8
Q:1/4=95
M:4/4
K:Gmin
V:1 treble nm="Soprano" snm="S"
V:2 treble nm="Alto" snm="A"
V:3 treble-8 nm="Tenor" snm="T"
V:4 bass nm="Bass" snm="B"
V:1
 G2 | G2 B2 B2 d2 | c2 B2 A2 _A2 | _A2 E2 A2 _c2 | B2 _A2 G2 D2 | G2 D2 B2 d2 | e2 B2 A2 d2 | %7
w: 1.Thou,|Lord on whom I|still de- pend shalt|keep me faith- ful|to the end; I|trust thy truth, and|love, and pow'r shall|
w: 2.Je-|sus, in thy great|name I go to|con- quer death, my|fi- nal foe; And|when I quit this|cum- brous clay, and|
w: 3.Eye|hath not seen, nor|ear hath heard, what|Christ hath for his|saints pre- pared, who|con- quer through their|Sav- iour's might, who|
w: 4.Dost|thou de- sire to|know and see what|thy my- ste- rious|name shall be? Con-|ten- ding for thy|heav'n- ly home, thy|
 B2 G2 G2 D2 | ^F2 G2 A2 B2 | G2 d2 d2 B2 | c2 d2 !fermata!d2 G2 | B2 G2 G2 D2 | %12
w: save me till my|la- test hour; And|when I lay this|bo- dy down, re-|ward with an im-|
w: soar on an- gels'|wings a- way, my|soul the se- cond|death de- fies, and|reigns e- ter- nal|
w: sink in- to per-|fec- tion's height, and|tram- ple death be-|neath their feet, and|glad- ly die their|
w: la- test foe in|death o'er- come; Till|then, thou search- est|out in vain what|on- ly con- quest|
[M:3/4] ^F2 G2 !fermata!G2 :| %13
w: mor- tal crown.|
w: in the skies.|
w: Lord to meet.|
w: can ex- plain.|
V:2
 C2 | B,2 D2 D2 D2 | E2 E2 D2 D2 | C2 C2 C2 _C2 | _D2 _C2 B,2 =C2 | B,2 B,C D2 G2 | G2 F2 E2 D2 | %7
w: 1.Thou,|Lord on whom I|still de- pend shalt|keep me faith- ful|to the end; I|trust thy _ truth, and|love, and pow'r shall|
w: 2.Je-|sus, in thy great|name I go to|con- quer death, my|fi- nal foe; And|when I _ quit this|cum- brous clay, and|
w: 3.Eye|hath not seen, nor|ear hath heard, what|Christ hath for his|saints pre- pared, who|con- quer _ through their|Sav- iour's might, who|
w: 4.Dost|thou de- sire to|know and see what|thy my- ste- rious|name shall be? Con-|ten- ding _ for thy|heav'n- ly home, thy|
 G2 G2 D2 D2 | D2 E2 ^F2 G2 | G2 d2 d2 B2 | A2 G2 !fermata!^F2 G2 | G2 D2 D2 D2 | %12
w: save me till my|la- test hour, and|when I lay this|bo- dy down, re-|ward with an im-|
w: soar on an- gels'|wings a- way, my|soul the se- cond|death de- fies, and|reigns e- ter- nal|
w: sink in- to per-|fec- tion's height, and|tram- ple death be-|neath their feet, and|glad- ly die their|
w: la- test foe in|death o'er- come; Till|then, thou search- est|out in vain what|on- ly con- quest|
[M:3/4] D2 D2 !fermata!D2 :| %13
w: mor- tal crown.|
w: in the skies.|
w: Lord to meet.|
w: can ex- plain.|
V:3
 A2 | G2 d2 c2 B2 | c2 d2 c2 c2 | _A2 E2 E2 E2 | _F2 F2 E2 A2 | G2 d2 c2 B2 | c2 c2 c2 c2 | %7
w: 1.Thou,|Lord on whom I|still de- pend shalt|keep me faith- ful|to the end; I|trust thy truth, and|love, and pow'r shall|
w: 2.Je-|sus, in thy great|name I go to|con- quer death, my|fi- nal foe; And|when I quit this|cum- brous clay, and|
w: 3.Eye|hath not seen, nor|ear hath heard, what|Christ hath for his|saints pre- pared, who|con- quer through their|Sav- iour's might, who|
w: 4.Dost|thou de- sire to|know and see what|thy my- ste- rious|name shall be? Con-|ten- ding for thy|heav'n- ly home, thy|
 B2 c2 d2 B2 | c2 d2 e2 e2 | G2 d2 d2 B2 | c2 B2 !fermata!c2 B2 | d2 c2 B2 G2 | %12
w: save me till my|la- test hour, and|when I lay this|bo- dy down, re-|ward with an im-|
w: soar on an- gels'|wings a- way, my|soul the se- cond|death de- fies, and|reigns e- ter- nal|
w: sink in- to per-|fec- tion's height, and|tram- ple death be-|neath their feet, and|glad- ly die their|
w: la- test foe in|death o'er- come; Till|then, thou search- est|out in vain what|on- ly con- quest|
[M:3/4] A2 B2 !fermata!G2 :| %13
w: mor- tal crown.|
w: in the skies.|
w: Lord to meet.|
w: can ex- plain.|
V:4
 D,2 | G,2 D,2 G,2 B,2 | A,2 G,2 ^F,2 =F,2 | _A,2 _A,,B,, C,2 E,2 | _D,2 E,2 D,2 ^F,2 | %5
w: 1.Thou,|Lord on whom I|still de- pend shalt|keep me _ faith- ful|to the end; I|
w: 2.Je-|sus, in thy great|name I go to|con- quer _ death, my|fi- nal foe; And|
w: 3.Eye|hath not seen, nor|ear hath heard, what|Christ hath _ for his|saints pre- pared, who|
w: 4.Dost|thou de- sire to|know and see what|thy my- * ste- rious|name shall be? Con-|
 G,2 G,2 G,2 B,2 | _A,2 G,2 ^F,2 F,2 | G,2 A,2 B,2 G,2 | A,2 B,2 C2 D2 | G,2 D2 D2 B,2 | %10
w: trust thy truth, and|love, and pow'r shall|save me till my|la- test hour, and|when I lay this|
w: when I quit this|cum- brous clay, and|soar on an- gels'|wings a- way, my|soul the se- cond|
w: con- quer through their|Sav- iour's might, who|sink in- to per-|fec- tion's height, and|tram- ple death be-|
w: ten- ding for thy|heav'n- ly home, thy|la- test foe in|death o'er- come; Till|then, thou search- est|
 A,2 B,2 !fermata!A,2 G,2 | D,2 E,2 C,2 E,2 |[M:3/4] D,2 D,2 !fermata![G,,G,]2 :| %13
w: bo- dy down, re-|ward with an im-|mor- tal crown.|
w: death de- fies, and|reigns e- ter- nal|in the skies.|
w: neath their feet, adn|glad- ly die their|Lord to meet.|
w: out in vain what|on- ly con- quest|can ex- plain.|

